flaticon/business/diagram-2.svg

<svg xmlns="http://www.w3.org/2000/svg" width="32" height="32" viewBox="0 0 24 24">
    <path d="M 21.199219 16.398438 L 21.199219 11.601562 L 12.398438 11.601562 L 12.398438 7.574219 C 13.976562 7.375 15.199219 6.027344 15.199219 4.398438 C 15.199219 2.636719 13.765625 1.199219 12 1.199219 C 10.234375 1.199219 8.800781 2.636719 8.800781 4.398438 C 8.800781 6.027344 10.023438 7.375 11.601562 7.574219 L 11.601562 11.601562 L 2.800781 11.601562 L 2.800781 16.398438 L 0 16.398438 L 0 22.800781 L 6.398438 22.800781 L 6.398438 16.398438 L 3.601562 16.398438 L 3.601562 12.398438 L 11.601562 12.398438 L 11.601562 16.398438 L 8.800781 16.398438 L 8.800781 22.800781 L 15.199219 22.800781 L 15.199219 16.398438 L 12.398438 16.398438 L 12.398438 12.398438 L 20.398438 12.398438 L 20.398438 16.398438 L 17.601562 16.398438 L 17.601562 22.800781 L 24 22.800781 L 24 16.398438 Z M 9.601562 4.398438 C 9.601562 3.078125 10.675781 2 12 2 C 13.324219 2 14.398438 3.078125 14.398438 4.398438 C 14.398438 5.722656 13.324219 6.800781 12 6.800781 C 10.675781 6.800781 9.601562 5.722656 9.601562 4.398438 Z M 5.601562 22 L 0.800781 22 L 0.800781 17.199219 L 5.601562 17.199219 Z M 14.398438 22 L 9.601562 22 L 9.601562 17.199219 L 14.398438 17.199219 Z M 23.199219 22 L 18.398438 22 L 18.398438 17.199219 L 23.199219 17.199219 Z M 23.199219 22"/>
</svg>

<svg xmlns="http://www.w3.org/2000/svg" width="32" height="32" viewBox="0 0 24 24">
    <path d="M21.2 16.398v-4.796h-8.802V7.574A3.206 3.206 0 0 0 15.2 4.398C15.2 2.637 13.766 1.2 12 1.2a3.203 3.203 0 0 0-3.2 3.2 3.206 3.206 0 0 0 2.802 3.175v4.028H2.8v4.796H0v6.403h6.398v-6.403H3.602v-4h8v4H8.8v6.403h6.398v-6.403h-2.8v-4h8v4h-2.797v6.403H24v-6.403zm-11.598-12A2.401 2.401 0 0 1 12 2a2.401 2.401 0 0 1 0 4.8 2.402 2.402 0 0 1-2.398-2.402zM5.602 22H.8v-4.8h4.8zm8.796 0H9.602v-4.8h4.796zm8.801 0h-4.8v-4.8h4.8zm0 0"/>
</svg>
